dist/svgs/unicons/solid/document-layout-right.svg

<svg xmlns="http://www.w3.org/2000/svg" viewBox="0 0 24 24"><path d="M13 18H3c-.6 0-1 .4-1 1s.4 1 1 1h10c.6 0 1-.4 1-1s-.4-1-1-1zM3 8h8c.6 0 1-.4 1-1s-.4-1-1-1H3c-.6 0-1 .4-1 1s.4 1 1 1zm0 4h8c.6 0 1-.4 1-1s-.4-1-1-1H3c-.6 0-1 .4-1 1s.4 1 1 1zm18-8h-6c-.6 0-1 .4-1 1v6c0 .6.4 1 1 1h6c.6 0 1-.4 1-1V5c0-.6-.4-1-1-1zm0 10H3c-.6 0-1 .4-1 1s.4 1 1 1h18c.6 0 1-.4 1-1s-.4-1-1-1z"/></svg>

<svg xmlns="http://www.w3.org/2000/svg" enable-background="new 0 0 24 24" viewBox="0 0 24 24"><path d="M13,18H3c-0.6,0-1,0.4-1,1s0.4,1,1,1h10c0.6,0,1-0.4,1-1S13.6,18,13,18z M3,8h8c0.6,0,1-0.4,1-1s-0.4-1-1-1H3C2.4,6,2,6.4,2,7S2.4,8,3,8z M3,12h8c0.6,0,1-0.4,1-1s-0.4-1-1-1H3c-0.6,0-1,0.4-1,1S2.4,12,3,12z M21,4h-6c-0.6,0-1,0.4-1,1v6c0,0.6,0.4,1,1,1h6c0.6,0,1-0.4,1-1V5C22,4.4,21.6,4,21,4z M21,14H3c-0.6,0-1,0.4-1,1s0.4,1,1,1h18c0.6,0,1-0.4,1-1S21.6,14,21,14z"/></svg>
